src/main/resources/icons/HandlebarsIcons/icons/elements/openPartial_dark.svg

<svg xmlns="http://www.w3.org/2000/svg" width="16" height="16" viewBox="0 0 16 16">
  <g fill="none" fill-rule="evenodd">
    <polygon fill="#9AA7B0" points="10 11.444 10 9.752 14.056 8.084 10 6.416 10 4.7 15.808 7.244 15.808 8.9"/>
    <path fill="#9AA7B0" d="M4.737,13 C2.724,12.6261682 2.163,11.8785047 2.163,10.6869159 C2.163,10.5116822 2.196,10.0794393 2.196,9.88084112 C2.196,8.96962617 1.844,8.67757009 0.986,8.67757009 L0.5,8.67757009 L0.5,7.32242991 L0.986,7.32242991 C1.844,7.32242991 2.196,7.03037383 2.196,6.11915888 C2.196,5.92056075 2.163,5.48831776 2.163,5.31308411 C2.163,4.12149533 2.724,3.37383178 4.737,3 L5.034,4.17990654 C3.868,4.53037383 3.692,4.85747664 3.692,5.57009346 C3.692,5.80373832 3.725,6.18925234 3.725,6.43457944 C3.725,7.28738318 3.318,7.74299065 2.581,8 C3.318,8.25700935 3.725,8.71261682 3.725,9.56542056 C3.725,9.81074766 3.692,10.1962617 3.692,10.4299065 C3.692,11.1425234 3.868,11.4696262 5.034,11.8200935 L4.737,13 Z"/>
    <path fill="#9AA7B0" d="M8.737,13 C6.724,12.6261682 6.163,11.8785047 6.163,10.6869159 C6.163,10.5116822 6.196,10.0794393 6.196,9.88084112 C6.196,8.96962617 5.844,8.67757009 4.986,8.67757009 L4.5,8.67757009 L4.5,7.32242991 L4.986,7.32242991 C5.844,7.32242991 6.196,7.03037383 6.196,6.11915888 C6.196,5.92056075 6.163,5.48831776 6.163,5.31308411 C6.163,4.12149533 6.724,3.37383178 8.737,3 L9.034,4.17990654 C7.868,4.53037383 7.692,4.85747664 7.692,5.57009346 C7.692,5.80373832 7.725,6.18925234 7.725,6.43457944 C7.725,7.28738318 7.318,7.74299065 6.581,8 C7.318,8.25700935 7.725,8.71261682 7.725,9.56542056 C7.725,9.81074766 7.692,10.1962617 7.692,10.4299065 C7.692,11.1425234 7.868,11.4696262 9.034,11.8200935 L8.737,13 Z"/>
  </g>
</svg>

<svg xmlns="http://www.w3.org/2000/svg" width="16" height="16" viewBox="0 0 16 16"><rect id="frame" width="16" height="16" fill="none"/><g fill="#9AA7B0" fill-rule="evenodd"><path d="M10 11.444V9.752l4.056-1.668L10 6.416V4.7l5.808 2.544V8.9z"/><path d="M4.737 13c-2.013-.374-2.574-1.121-2.574-2.313 0-.175.033-.608.033-.806 0-.911-.352-1.203-1.21-1.203H.5V7.322h.486c.858 0 1.21-.292 1.21-1.203 0-.198-.033-.63-.033-.806 0-1.192.561-1.94 2.574-2.313l.297 1.18c-1.166.35-1.342.677-1.342 1.39 0 .234.033.62.033.865 0 .852-.407 1.308-1.144 1.565.737.257 1.144.713 1.144 1.565 0 .246-.033.631-.033.865 0 .713.176 1.04 1.342 1.39L4.737 13z"/><path d="M8.737 13c-2.013-.374-2.574-1.121-2.574-2.313 0-.175.033-.608.033-.806 0-.911-.352-1.203-1.21-1.203H4.5V7.322h.486c.858 0 1.21-.292 1.21-1.203 0-.198-.033-.63-.033-.806 0-1.192.561-1.94 2.574-2.313l.297 1.18c-1.166.35-1.342.677-1.342 1.39 0 .234.033.62.033.865 0 .852-.407 1.308-1.144 1.565.737.257 1.144.713 1.144 1.565 0 .246-.033.631-.033.865 0 .713.176 1.04 1.342 1.39L8.737 13z"/></g></svg>
